X:1
T:Title
%%score { ( 1 3 ) | ( 2 4 ) }
L:1/8
Q:1/4=90
M:2/4
K:Ab
V:1 treble nm="Grand Piano"
V:3 treble 
V:2 bass 
V:4 bass 
V:1
 [CA][CE] [EG][DF] | [CE][B,D] [A,C][CE] | [CA]2 B2 | c4 | cB =Ac | BG [=DF][DA] | [EG]2 [=DF]2 | %7
w: H.~M.~Higinbotham * * *|||||||
 E4 | EE =DE | [=DF][EG] [FA][DF] | [EG][EG] [FA][Ac] | [GB]4 | [=DB][DB] [D=A][Ec] | %13
w: ||||||
 [=DB][DB] [DF][DG] | [=DA][DA] [DG][DF] |[M:5/8] E-E- E3 |[M:2/4] c-[Ac] [CE][Ed] | c4 | %18
w: |||||
 [Ec][EA] [EB][Ec] | d4 | d2 z2 | d4 | [Ge][Fd] cB | c4 | cd ec | [GB][Ac] [Gd]2 | %26
w: ||||||||
 [EB][Gd] [Ec][EB] | [EA]B c2 | c2 AF |[M:5/8] E [_Ge]3 [Fd] |[M:2/4] c2 cB | [A,FA]4 |] %32
w: ||||||
V:2
 [A,,E,][A,,A,] [A,,A,][A,,A,] | [A,,A,][A,,A,] [A,,E,][A,,A,] | [A,,A,]2 [E,G,E]2 | [A,E]4 | %4
 [E,A,E][E,G,D] [E,G,D][E,G,E] | [E,G,D][E,B,D] [B,,B,][B,,B,] | [B,,B,]2 [B,,A,]2 | [E,G,]4 | %8
 [E,G,B,][E,G,B,] [E,G,B,][E,G,B,] | [B,,B,][B,,B,] [B,,B,][B,,B,] | [E,B,][E,B,] [E,B,][E,B,] | %11
 [E,B,]4 | [B,,B,][B,,B,] [B,,B,][B,,B,] | [B,,B,][B,,B,] [B,,B,][B,,B,] | %14
 [B,,F,][B,,F,] [B,,B,][B,,A,] |[M:5/8] [E,-B,]2 [E,B,]3 |[M:2/4] [A,,A,][A,,E,] [A,,A,][A,,A,] | %17
 [A,E]A, A,2 | [A,,A,][C,A,] [B,,G,][A,,A,] | [E,B,][E,A,] [E,G,]2 | [E,B,E][E,G,] [E,B,][E,B,] | %21
 [E,A,][E,G,] [E,G,]2 | [E,B,][E,A,] [E,A,E][E,G,E] | [A,E]A, A,2 | [A,E][B,EG] [CEA][A,EA] | %25
 [E,E][E,E] [E,B,]2 | [E,G,][E,B,] [E,A,][D,G,] | [C,A,][E,G,E] [A,E]2 | [A,E]2 [A,C][A,D] | %29
[M:5/8] [A,C] [C,A,]3 [D,A,] |[M:2/4] [E,A,E]2 [E,A,E][E,G,D] | [A,,D,]2 A,,2 |] %32
V:3
 x4 | x4 | x4 | x4 | x4 | x4 | x4 | x4 | x4 | x4 | x4 | x4 | x4 | x4 | x4 |[M:5/8] z A, D3 | %16
[M:2/4] .E2 z2 | z E E2 | x4 | GF E2 | z B [GB][Gd] | FE E2 | x4 | z E E2 | x4 | x4 | x4 | x4 | %28
 x4 |[M:5/8] x5 |[M:2/4] x4 | D2 [CE]2 |] %32
V:4
 x4 | x4 | x4 | x4 | x4 | x4 | x4 | x4 | x4 | x4 | x4 | x4 | x4 | x4 | x4 |[M:5/8] G, z z z2 | %16
[M:2/4] x4 | x4 | x4 | x4 | x4 | x4 | x4 | x4 | x4 | x4 | x4 | x4 | x4 |[M:5/8] x5 |[M:2/4] x4 | %31
 x4 |] %32

